public/assets/images/two.svg

<svg width="34" height="41" viewBox="0 0 34 41" fill="none" xmlns="http://www.w3.org/2000/svg">
<path d="M23.92 10.18C23.92 13.94 21.86 17.5 17.74 20.86L6.22 30.4C4.46 31.92 3.58 33.3 3.58 34.54C3.58 35.42 3.84 36.04 4.36 36.4C4.92 36.72 5.96 36.88 7.48 36.88H22.48C23.04 36.88 23.42 36.98 23.62 37.18C23.82 37.38 23.92 37.76 23.92 38.32V38.56C23.92 39.12 23.82 39.5 23.62 39.7C23.42 39.9 23.04 40 22.48 40H7.36C4.88 40 3.08 39.58 1.96 38.74C0.84 37.9 0.28 36.6 0.28 34.84C0.28 32.32 1.58 30 4.18 27.88L15.34 18.82C17.34 17.18 18.72 15.76 19.48 14.56C20.24 13.32 20.62 11.96 20.62 10.48C20.62 8.12 19.9 6.4 18.46 5.32C17.02 4.2 14.7 3.64 11.5 3.64C8.02 3.64 5.06 4.16 2.62 5.2C1.7 5.64 1.24 5.28 1.24 4.12V3.58C1.24 3.06 1.32 2.7 1.48 2.5C1.68 2.3 2.06 2.1 2.62 1.9C5.5 0.979997 8.48 0.519997 11.56 0.519997C19.8 0.519997 23.92 3.74 23.92 10.18ZM27.7239 37.78C27.6039 36.7 28.0039 35.94 28.9239 35.5C29.8439 35.06 30.7639 35.06 31.6839 35.5C32.6039 35.94 33.0039 36.7 32.8839 37.78C32.8839 38.5 32.6239 39.12 32.1039 39.64C31.6239 40.12 31.0239 40.36 30.3039 40.36C29.5839 40.36 28.9639 40.12 28.4439 39.64C27.9639 39.12 27.7239 38.5 27.7239 37.78Z" fill="url(#paint0_radial_169_2080)"/>
<defs>
<radialGradient id="paint0_radial_169_2080" cx="0" cy="0" r="1" gradientUnits="userSpaceOnUse" gradientTransform="translate(48.4962 48.0908) rotate(-139.119) scale(51.105 47.9185)">
<stop stop-color="#C6B38A"/>
<stop offset="0.463601" stop-color="#F3C691"/>
<stop offset="1" stop-color="#B4703E"/>
</radialGradient>
</defs>
</svg>

<svg xmlns="http://www.w3.org/2000/svg" width="34" height="41" fill="none" xmlns:v="https://vecta.io/nano"><path d="M23.92 10.18c0 3.76-2.06 7.32-6.18 10.68L6.22 30.4c-1.76 1.52-2.64 2.9-2.64 4.14 0 .88.26 1.5.78 1.86.56.32 1.6.48 3.12.48h15c.56 0 .94.1 1.14.3s.3.58.3 1.14v.24c0 .56-.1.94-.3 1.14s-.58.3-1.14.3H7.36c-2.48 0-4.28-.42-5.4-1.26S.28 36.6.28 34.84c0-2.52 1.3-4.84 3.9-6.96l11.16-9.06c2-1.64 3.38-3.06 4.14-4.26.76-1.24 1.14-2.6 1.14-4.08 0-2.36-.72-4.08-2.16-5.16-1.44-1.12-3.76-1.68-6.96-1.68-3.48 0-6.44.52-8.88 1.56-.92.44-1.38.08-1.38-1.08v-.54c0-.52.08-.88.24-1.08.2-.2.58-.4 1.14-.6A29.2 29.2 0 0 1 11.56.52c8.24 0 12.36 3.22 12.36 9.66zm3.804 27.6c-.12-1.08.28-1.84 1.2-2.28s1.84-.44 2.76 0 1.32 1.2 1.2 2.28c0 .72-.26 1.34-.78 1.86-.48.48-1.08.72-1.8.72s-1.34-.24-1.86-.72c-.48-.52-.72-1.14-.72-1.86z" fill="url(#A)"/><defs><radialGradient id="A" cx="0" cy="0" r="1" gradientUnits="userSpaceOnUse" gradientTransform="translate(48.4962 48.0908) rotate(-139.119) scale(51.105 47.9185)"><stop stop-color="#c6b38a"/><stop offset=".464" stop-color="#f3c691"/><stop offset="1" stop-color="#b4703e"/></radialGradient></defs></svg>
